X:1598
T:Blazing Comet, The
R:Jig
O:England
M:6/8
L:1/8
B:"The Fiddler of Helperby", Dragonfly Music, ISBN 1-872277-18-7, 1994.
A:Yorkshire
H:Dance Music, 1820-1850
K:D
"D"DFA AFA|"G"Bcd "A"cde|"D"DFA AFA|"Em"eEE "A"E3|
"D"DFA AFA|"G"Bcd "A"cde|\
"Em"GeG "D"Fd"A"c|"D"dAF D3:|
|:"D"dfd "A"ecA|"G"Bcd "D"AFD|\
"D"dfd "A"ecA|"Em"eEE "A"E2 F|
"Em"GFG "F#m"AGA|"G"Bcd "D"AFD|\
"Em"Bge "A"cAc|"D"dAF D3:|
